X: 1
T:In the Tap Room
R:reel
N:See also #378
D:De Danann: The Mist Covered Mountain
Z:id:hn-reel-295
M:C|
K:Edor
E2Bc dB~B2|dBAF DEFD|E2Bc dB~B2|dBA=c BEED|
E2Bc dB~B2|dBAF DEFA|afge fded|1 dBAF DEFD:|2 dBAF DEFA||
|:(3Bcd ef gfed|(3Bcd AF DEFA|Beef gfed|BdA=c BE~E2|
(3Bcd ef gfed|(3Bcd AF DEFA|afge fded|1 dBA=c BE~E2:|2 dBAF DEFD||
